images/icons/microsoft.svg

<svg fill="none" height="25" viewBox="0 0 25 25" width="25" xmlns="http://www.w3.org/2000/svg"><path d="m1.54346 1.54346h10.43474v10.43474h-10.43474z" fill="#f35325"/><path d="m13.022 1.54346h10.4348v10.43474h-10.4348z" fill="#81bc06"/><path d="m1.54346 13.0217h10.43474v10.4348h-10.43474z" fill="#05a6f0"/><path d="m13.022 13.0217h10.4348v10.4348h-10.4348z" fill="#ffba08"/></svg>

<svg width="25" height="25" viewBox="0 0 25 25" fill="none" xmlns="http://www.w3.org/2000/svg">
<path d="M1.54346 1.54346H11.9782V11.9782H1.54346V1.54346Z" fill="#F35325"/>
<path d="M13.022 1.54346H23.4568V11.9782H13.022V1.54346Z" fill="#81BC06"/>
<path d="M1.54346 13.0217H11.9782V23.4565H1.54346V13.0217Z" fill="#05A6F0"/>
<path d="M13.022 13.0217H23.4568V23.4565H13.022V13.0217Z" fill="#FFBA08"/>
</svg>
